X:1
T:Title
%%score { 1 | 2 }
L:1/8
M:4/4
K:Ab
V:1 treble nm="Grand Piano"
V:2 bass 
V:1
 z4 z2 z[Q:1/4=100] E | [CA]2 [CA]>[DB] [Ec]2 [CE][CE] | [DF]2 [FA]>[FB] [CEA]2 [A,CE][A,EA] | %3
 B2 B>c d2 B[EG] | [EA]2 [=DB]>[Dc] B3 E | [CA]2 [CA]>[DB] [Ec]2 [CE][CE] | %6
 [DF]2 [FA]>[FB] [CEA]2 [CE][Ec] | [Ae]2 [Ae][_Ge] [Fe]2 [Fd][B,FB] | %8
[M:7/8] [CEA] [EAc]2 [DGB] [CA]3 |[M:1/8] A |[M:4/4] [Fd]2 [Fd]>[Fd] [Fd] [Fd]2 [FA] | %11
 [Ec]2 [Ec]>[Ec] [Ec] [CE]2 [Ec] | [=DB]2 [DB][EB] [FB] [B,DF]2 [DFA] | [EG]2 [B,EG]>[A,=DF] E3 E | %14
 A2 A>B c2 EE | F [Fd]2 [Fd] [Fd]2 [Ec][Ec] | [Ae] [Ae]2 [_Ge] [Fe]2 [Fd][B,FB] | %17
[M:7/8] [CEA] [EAc]2 [DGB] [CA]3 |] %18
V:2
 z4 z2 z E, | [A,,E,]2 [A,,E,]>[A,,E,] [A,,A,]2 [A,,A,][A,,A,] | [D,A,]2 [D,D]>[D,D] A,,2 A,,C, | %3
 [E,G,E]2 [E,G,E]>[E,A,E] [E,B,E]2 [E,DE][D,B,] | [C,A,]2 [B,,A,]>[B,,A,] [E,G,E]3 [E,D] | %5
 [A,,E,]2 [A,,E,]>[A,,E,] [A,,A,]2 [A,,A,][A,,A,] | [D,A,]2 [D,D]>[D,D] A,,2 [A,,A,][A,,A,] | %7
 [C,A,]2 [C,A,][C,A,] [D,A,]2 [D,A,]D, |[M:7/8] E, E,2 E, A,,3 |[M:1/8] A, | %10
[M:4/4] [D,A,]2 [D,A,]>[D,A,] [D,A,] [D,A,]2 [D,A,] | %11
 [A,,A,]2 [A,,A,]>[A,,A,] [A,,A,] A,,2 [A,,A,] | [B,,F,]2 [B,,F,][B,,G,] [B,,A,] B,,2 B,, | %13
 B,,2 B,,>B,, [E,G,]3 [G,D] | [A,CE]2 [A,CE]>[A,DE] [A,E]2 [A,C][A,C] | %15
 [D,A,D] [D,A,]2 [D,A,] [A,,A,]2 [A,,A,][A,,A,] | [C,A,] [C,A,]2 [C,A,] [D,A,]2 [D,A,]D, | %17
[M:7/8] E, E,2 E, A,,3 |] %18

